; HEADER_BLOCK_START
; generated by OrcaSlicer 1.7.0 on 2023-11-13 at 12:48:28
; total layer number: 87
; HEADER_BLOCK_END

; THUMBNAIL_BLOCK_START
; THUMBNAIL_BLOCK_END

; external perimeters extrusion width = 0.70mm
; perimeters extrusion width = 0.45mm
; infill extrusion width = 0.45mm
; solid infill extrusion width = 0.40mm
; top infill extrusion width = 0.40mm
; first layer extrusion width = 0.50mm

; EXECUTABLE_BLOCK_START
M73 P0 R50
M201 X500 Y500 Z100 E5000
M203 X500 Y500 Z10 E60
M204 P500 R1000 T500
M205 X8.00 Y8.00 Z0.40 E5.00 ; sets the jerk limits, mm/sec
;TYPE:Custom
G90 ; use absolute coordinates
M83 ; extruder relative mode
M140 S60 ; set final bed temp
M104 S150 ; set temporary nozzle temp to prevent oozing during homing
G4 S10 ; allow partial nozzle warmup
G28 ; home all axis
G1 Z50 F240
G1 X2 Y10 F3000
M104 S220 ; set final nozzle temp
M190 S60 ; wait for bed temp to stabilize
M109 S220 ; wait for nozzle temp to stabilize
M73 P0 R49
G1 Z0.28 F240
G92 E0
G1 Y140 E10 F1500 ; prime the nozzle
G1 X2.3 F5000
G92 E0
M73 P1 R49
G1 Y10 E10 F1200 ; prime the nozzle
G92 E0
G90
G21
M83 ; use relative distances for extrusion
; filament start gcode
M106 S0
;LAYER_CHANGE
;Z:0.32
;HEIGHT:0.32
;BEFORE_LAYER_CHANGE
;0.32
G92 E0

G1 Z.32 F9000
;_SET_FAN_SPEED_CHANGING_LAYER
M204 S500
G1 E-5 F3600
G1 X27.931 Y58.094 F9000
G1 E5 F2400
;TYPE:Skirt
;WIDTH:0.5
G1 F900
G1 X30.541 Y56.839 E.16283
G1 X33.402 Y55.868 E.1699
G1 X36.358 Y55.248 E.16989
G1 X39.486 Y54.987 E.1765
G1 X190.049 Y54.981 E8.46709
G1 X191.424 Y55.05 E.07741
G1 X192.707 Y55.228 E.07286
G1 X194.188 Y55.577 E.08557
G1 X195.602 Y56.066 E.08417
G1 X196.632 Y56.526 E.06344
G1 X197.914 Y57.237 E.08241
G1 X199.466 Y58.34 E.10711
G1 X200.35 Y59.117 E.06616
G1 X201.094 Y59.878 E.05987
G1 X202.287 Y61.363 E.10711
G1 X203.433 Y63.285 E.12584
G1 X204.176 Y65.041 E.10723
G1 X204.519 Y66.157 E.06568
G1 X204.756 Y67.204 E.06036
G1 X204.991 Y69.094 E.10712
G1 X204.991 Y150.906 E4.60077
G1 X204.833 Y152.354 E.08194
G1 X204.339 Y154.467 E.12202
G1 X203.839 Y155.835 E.08193
G1 X202.899 Y157.692 E.11702
G1 X201.761 Y159.34 E.11262
G1 X200.69 Y160.549 E.09085
G1 X199.191 Y161.877 E.1126
G1 X197.461 Y163.033 E.11701
G1 X195.687 Y163.9 E.11103
G1 X193.964 Y164.485 E.10236
G1 X192.038 Y164.879 E.11055
G1 X190.046 Y165.019 E.11231
G1 X38.673 Y164.983 E8.51266
G1 X36.987 Y164.837 E.09516
M73 P2 R48
G1 X35.282 Y164.57 E.09702
G1 X32.383 Y163.83 E.16825
G1 X29.456 Y162.688 E.17671
G1 X26.823 Y161.267 E.16825
G1 X25.296 Y160.242 E.10344
G1 X23.937 Y159.18 E.09698
G1 X21.763 Y157.125 E.16827
G1 X19.761 Y154.707 E.17654
G1 X18.149 Y152.183 E.16841
G1 X16.841 Y149.462 E.16974
G1 X15.893 Y146.688 E.1649
G1 X15.319 Y144.089 E.14968
G1 X15.007 Y141.116 E.16806
G1 X14.981 Y80 E3.43697
G1 X15.105 Y77.523 E.13947
G1 X15.566 Y74.628 E.16485
G1 X16.391 Y71.722 E.16989
G1 X17.561 Y68.937 E.16991
G1 X19.059 Y66.313 E.1699
G1 X20.861 Y63.888 E.1699
G1 X22.943 Y61.699 E.1699
G1 X25.273 Y59.776 E.1699
G1 X27.818 Y58.148 E.1699
G1 X27.895 Y58.111 E.00482
; printing object SpeedTestStructure.step id:0 copy 0
G1 E-3.5 F3600
;WIPE_START
G1 F900
G1 X28.797 Y57.678 E-1.5
;WIPE_END
G1 X29.155 Y60.433 F9000
G1 E5 F2400
;TYPE:Brim
G1 F900
G1 X30.546 Y59.724 E.08783
G1 X31.592 Y59.268 E.06417
G1 X33.059 Y58.732 E.08782
G1 X34.152 Y58.406 E.06417
G1 X35.671 Y58.051 E.08768
G1 X36.798 Y57.858 E.06431
G1 X38.35 Y57.689 E.0878
G1 X39.491 Y57.634 E.06427
G1 X190.47 Y57.637 E8.4905
G1 X191.234 Y57.69 E.04303
G1 X192.17 Y57.82 E.05315
G1 X192.918 Y57.977 E.04301
G1 X193.417 Y58.109 E.02902
G1 X193.824 Y58.234 E.02391
G1 X194.544 Y58.492 E.04303
G1 X195.409 Y58.873 E.05315
G1 X196.088 Y59.229 E.04313
G1 X196.453 Y59.444 E.02381
G1 X197.24 Y59.967 E.05313
G1 X197.847 Y60.435 E.04311
G1 X198.238 Y60.769 E.02892
G1 X198.55 Y61.057 E.02391
G1 X199.088 Y61.604 E.04313
G1 X199.701 Y62.321 E.05305
G1 X200.158 Y62.937 E.04313
G1 X200.395 Y63.29 E.02392
G1 X200.665 Y63.728 E.02891
G1 X201.032 Y64.399 E.04301
G1 X201.428 Y65.258 E.05315
G1 X201.7 Y65.975 E.04313
G1 X201.831 Y66.379 E.02391
G1 X201.971 Y66.874 E.02892
G1 X202.142 Y67.621 E.04311
G1 X202.288 Y68.553 E.05305
G1 X202.354 Y69.317 E.04311
G1 X202.371 Y69.829 E.02879
G1 X202.37 Y70.256 E.02404
G1 X202.33 Y71.022 E.04313
G1 X202.217 Y71.958 E.05305
G1 X202.072 Y72.711 E.04312
G1 X201.972 Y73.123 E.02383
G1 X201.699 Y74.028 E.05313
G1 X201.427 Y74.744 E.04311
G1 X201.221 Y75.214 E.02883
G1 X200.875 Y75.9 E.04322
G1 X200.667 Y76.269 E.02384
G1 X200.157 Y77.065 E.05314
G1 X199.701 Y77.679 E.043
G1 X199.373 Y78.077 E.02903
G1 X199.09 Y78.394 E.02391
G1 X198.552 Y78.941 E.04312
G1 X197.846 Y79.566 E.05305
G1 X197.238 Y80.034 E.04311
G1 X196.817 Y80.325 E.02883
G1 X196.162 Y80.729 E.04324
G1 X195.791 Y80.933 E.02381
G1 X194.94 Y81.343 E.05313
G1 X194.228 Y81.627 E.04311
G1 X193.741 Y81.793 E.02891
G1 X193.334 Y81.915 E.02392
G1 X192.587 Y82.099 E.04324
G1 X192.084 Y82.195 E.02883
G1 X191.323 Y82.301 E.04319
G1 X190.812 Y82.345 E.02885
G1 X189.997 Y82.372 E.04585
G1 X50.023 Y82.372 E7.87163
G1 X49.482 Y82.39 E.03043
M73 P3 R48
G1 X48.702 Y82.484 E.04422
G1 X47.932 Y82.659 E.04439
G1 X47.184 Y82.912 E.04441
G1 X46.466 Y83.241 E.0444
G1 X45.787 Y83.643 E.0444
G1 X45.152 Y84.113 E.0444
G1 X44.569 Y84.646 E.04441
G1 X44.21 Y85.036 E.02983
G1 X43.73 Y85.658 E.04419
G1 X43.315 Y86.33 E.0444
G1 X42.971 Y87.041 E.0444
G1 X42.777 Y87.554 E.03086
G1 X42.562 Y88.314 E.0444
G1 X42.428 Y89.092 E.04442
G1 X42.375 Y89.879 E.04439
G1 X42.401 Y90.646 E.04315
G1 X42.467 Y91.191 E.03086
G1 X42.631 Y91.964 E.0444
G1 X42.865 Y92.694 E.04316
G1 X43.182 Y93.417 E.04439
G1 X43.446 Y93.899 E.03086
G1 X43.87 Y94.538 E.04314
G1 X44.372 Y95.147 E.04441
G1 X44.744 Y95.526 E.02982
G1 X45.152 Y95.887 E.03066
G1 X45.786 Y96.357 E.0444
G1 X46.447 Y96.748 E.04316
G1 X46.941 Y96.986 E.03085
G1 X47.658 Y97.258 E.04315
G1 X48.186 Y97.408 E.03086
G1 X48.96 Y97.556 E.04432
G1 X49.726 Y97.622 E.04323
G1 X189.999 Y97.628 E7.8884
G1 X190.47 Y97.637 E.02653
G1 X191.237 Y97.69 E.04323
G1 X191.746 Y97.752 E.02884
G1 X192.501 Y97.884 E.04311
G1 X193.417 Y98.109 E.05303
G1 X194.229 Y98.373 E.048
G1 X195.023 Y98.693 E.04814
G1 X195.407 Y98.872 E.02383
G1 X196.086 Y99.228 E.04313
G1 X196.889 Y99.723 E.05303
G1 X197.583 Y100.223 E.04811
G1 X197.913 Y100.489 E.02383
G1 X198.487 Y100.997 E.04313
G1 X199.088 Y101.605 E.04808
G1 X199.646 Y102.252 E.04801
G1 X200.206 Y103.007 E.05289
G1 X200.666 Y103.729 E.04815
G1 X201.034 Y104.403 E.04316
G1 X201.219 Y104.784 E.02383
G1 X201.553 Y105.572 E.04811
G1 X201.856 Y106.464 E.053
G1 X202.073 Y107.292 E.04812
G1 X202.158 Y107.707 E.02384
G1 X202.277 Y108.463 E.04305
G1 X202.354 Y109.315 E.04814
G1 X202.37 Y110.258 E.053
G1 X202.323 Y111.112 E.04811
G1 X202.277 Y111.533 E.02384
G1 X202.159 Y112.291 E.04314
G1 X201.971 Y113.125 E.04803
G1 X201.699 Y114.027 E.05301
G1 X201.393 Y114.825 E.04803
G1 X201.072 Y115.522 E.04315
G1 X200.877 Y115.897 E.02381
G1 X200.395 Y116.71 E.05311
G1 X199.908 Y117.411 E.04803
G1 X199.429 Y118.01 E.04312
G1 X199.149 Y118.329 E.02386
G1 X198.552 Y118.941 E.04812
G1 X197.915 Y119.51 E.04801
G1 X197.166 Y120.086 E.05311
G1 X196.817 Y120.325 E.02381
G1 X196.164 Y120.728 E.04315
G1 X195.407 Y121.128 E.04814
G1 X194.942 Y121.342 E.02879
G1 X194.146 Y121.657 E.04813
G1 X193.416 Y121.891 E.04313
G1 X192.92 Y122.023 E.02884
G1 X192.168 Y122.181 E.04321
G1 X191.662 Y122.26 E.02883
G1 X190.899 Y122.339 E.04314
G1 X190.042 Y122.372 E.04821
G1 X50.023 Y122.372 E7.87415
G1 X49.482 Y122.39 E.03043
M73 P4 R48
G1 X48.702 Y122.484 E.0442
G1 X47.932 Y122.659 E.0444
G1 X47.185 Y122.912 E.04432
G1 X46.698 Y123.125 E.0299
G1 X46.008 Y123.501 E.0442
G1 X45.358 Y123.949 E.0444
G1 X44.757 Y124.461 E.0444
G1 X44.373 Y124.853 E.03086
G1 X43.871 Y125.462 E.04441
M73 P4 R47
G1 X43.434 Y126.12 E.0444
G1 X43.078 Y126.8 E.04316
G1 X42.784 Y127.533 E.0444
G1 X42.567 Y128.292 E.0444
G1 X42.431 Y129.068 E.04432
G1 X42.383 Y129.616 E.03095
G1 X42.385 Y130.406 E.04441
G1 X42.467 Y131.191 E.0444
G1 X42.625 Y131.942 E.04315
G1 X42.865 Y132.694 E.04442
G1 X43.07 Y133.183 E.0298
G1 X43.434 Y133.88 E.04419
G1 X43.871 Y134.538 E.04441
G1 X44.372 Y135.147 E.04439
G1 X44.744 Y135.526 E.02982
G1 X45.34 Y136.038 E.0442
G1 X45.988 Y136.486 E.04431
G1 X46.466 Y136.759 E.03095
G1 X47.163 Y137.08 E.04316
G1 X47.91 Y137.335 E.04439
G1 X48.425 Y137.463 E.02982
G1 X49.2 Y137.585 E.0441
G1 X49.73 Y137.622 E.02991
G1 X189.999 Y137.628 E7.88819
G1 X190.47 Y137.637 E.02653
G1 X191.237 Y137.69 E.04321
G1 X191.746 Y137.752 E.02886
G1 X192.501 Y137.883 E.04311
G1 X193.417 Y138.109 E.05303
G1 X194.229 Y138.373 E.048
G1 X195.021 Y138.693 E.04805
G1 X195.712 Y139.025 E.04313
G1 X196.085 Y139.228 E.02385
G1 X196.815 Y139.674 E.04811
G1 X197.581 Y140.223 E.05301
G1 X198.238 Y140.769 E.048
G1 X198.855 Y141.359 E.04803
G1 X199.431 Y141.992 E.04813
G1 X199.7 Y142.319 E.02383
G1 X200.157 Y142.935 E.04313
G1 X200.666 Y143.729 E.05303
G1 X201.073 Y144.48 E.04801
G1 X201.428 Y145.258 E.04814
G1 X201.584 Y145.653 E.02383
G1 X201.83 Y146.377 E.04306
G1 X202.053 Y147.204 E.04815
G1 X202.217 Y148.042 E.04804
G1 X202.323 Y148.889 E.048
G1 X202.371 Y149.829 E.05288
G1 X202.354 Y150.685 E.04815
G1 X202.288 Y151.449 E.04316
G1 X202.231 Y151.869 E.02383
G1 X202.072 Y152.71 E.04811
G1 X201.831 Y153.621 E.05303
G1 X201.584 Y154.347 E.04311
G1 X201.428 Y154.742 E.02385
G1 X201.073 Y155.52 E.04814
G1 X200.666 Y156.271 E.04801
G1 X200.157 Y157.064 E.053
G1 X199.646 Y157.748 E.04805
G1 X199.147 Y158.331 E.04313
G1 X198.856 Y158.64 E.02384
G1 X198.238 Y159.231 E.04811
G1 X197.511 Y159.831 E.053
G1 X196.816 Y160.326 E.048
G1 X196.087 Y160.771 E.04803
G1 X195.329 Y161.166 E.04805
G1 X194.628 Y161.474 E.04305
G1 X193.824 Y161.766 E.04813
G1 X193.334 Y161.915 E.0288
G1 X192.502 Y162.116 E.04813
G1 X191.748 Y162.248 E.04305
G1 X190.898 Y162.339 E.04805
G1 X190.042 Y162.372 E.04821
G1 X40.003 Y162.372 E8.4376
G1 X38.89 Y162.344 E.06263
G1 X37.333 Y162.212 E.0879
G1 X36.738 Y162.133 E.03372
G1 X35.733 Y161.961 E.05734
G1 X34.618 Y161.715 E.06425
G1 X33.116 Y161.286 E.08782
G1 X32.038 Y160.907 E.06425
G1 X31.094 Y160.523 E.05736
G1 X30.547 Y160.277 E.0337
G1 X29.155 Y159.567 E.08789
G1 X28.171 Y158.989 E.06417
G1 X26.874 Y158.116 E.08792
G1 X26.393 Y157.758 E.03368
G1 X25.598 Y157.12 E.05734
G1 X24.743 Y156.362 E.06427
G1 X23.639 Y155.258 E.08782
G1 X22.881 Y154.403 E.06424
G1 X22.243 Y153.607 E.05736
G1 X21.885 Y153.127 E.03368
G1 X21.013 Y151.831 E.08786
G1 X20.434 Y150.846 E.06423
G1 X19.725 Y149.454 E.08784
G1 X19.27 Y148.41 E.06406
G1 X18.887 Y147.397 E.06089
G1 X18.422 Y145.906 E.08783
G1 X18.149 Y144.797 E.06424
G1 X17.937 Y143.701 E.06276
G1 X17.735 Y142.181 E.08627
G1 X17.653 Y141.049 E.06382
G1 X17.628 Y139.997 E.05914
G1 X17.628 Y80.003 E3.37388
G1 X17.657 Y78.871 E.06365
M73 P5 R47
G1 X17.736 Y77.81 E.05983
G1 X17.943 Y76.264 E.08772
G1 X18.162 Y75.143 E.06423
G1 X18.554 Y73.634 E.08768
G1 X18.907 Y72.546 E.06431
G1 X19.478 Y71.093 E.08782
G1 X19.959 Y70.058 E.06417
G1 X20.702 Y68.684 E.08782
G1 X21.304 Y67.715 E.06418
G1 X22.206 Y66.44 E.08784
G1 X22.921 Y65.551 E.06415
G1 X23.97 Y64.395 E.08781
G1 X24.787 Y63.597 E.06419
G1 X25.968 Y62.576 E.08782
G1 X26.875 Y61.883 E.06417
G1 X28.171 Y61.012 E.08782
G1 X29.12 Y60.453 E.06192
G1 X29.339 Y60.825 F9000
G1 F900
G1 X29.365 Y60.81 E.00174
G1 X30.727 Y60.116 E.08592
G1 X31.749 Y59.67 E.06271
G1 X33.191 Y59.143 E.08635
G1 X34.26 Y58.824 E.06271
G1 X35.752 Y58.475 E.08622
G1 X36.854 Y58.286 E.06284
G1 X38.38 Y58.12 E.08633
G1 X39.505 Y58.065 E.06334
G1 X190.451 Y58.068 E8.48865
G1 X191.193 Y58.12 E.04185
G1 X192.1 Y58.246 E.05148
G1 X192.815 Y58.396 E.0411
G1 X193.296 Y58.523 E.02798
G1 X194.388 Y58.895 E.06485
G1 X195.228 Y59.265 E.0516
G1 X196.227 Y59.812 E.06407
G1 X196.992 Y60.321 E.05167
G1 X197.58 Y60.773 E.04171
G1 X198.246 Y61.363 E.05004
G1 X198.773 Y61.9 E.04229
G1 X199.366 Y62.594 E.05138
G1 X199.809 Y63.191 E.04178
G1 X200.289 Y63.94 E.05005
G1 X200.648 Y64.597 E.04211
G1 X201.031 Y65.429 E.05148
G1 X201.291 Y66.115 E.04128
G1 X201.419 Y66.507 E.02318
G1 X201.554 Y66.984 E.02788
G1 X201.717 Y67.698 E.0412
G1 X201.86 Y68.61 E.05188
G1 X201.923 Y69.349 E.04171
G1 X201.939 Y70.238 E.05004
G1 X201.901 Y70.98 E.04178
G1 X201.789 Y71.898 E.052
G1 X201.557 Y73.002 E.06345
G1 X201.289 Y73.893 E.0523
G1 X201.029 Y74.578 E.0412
G1 X200.832 Y75.027 E.02757
G1 X200.496 Y75.694 E.04202
G1 X200.299 Y76.043 E.02255
G1 X199.799 Y76.823 E.05208
G1 X199.358 Y77.417 E.0416
G1 X198.778 Y78.095 E.05015
G1 X198.258 Y78.625 E.04177
G1 X197.568 Y79.236 E.05188
G1 X196.987 Y79.683 E.0412
G1 X196.583 Y79.962 E.02758
G1 X195.6 Y80.546 E.06432
G1 X194.762 Y80.95 E.0523
G1 X194.082 Y81.221 E.04121
G1 X193.612 Y81.381 E.02787
G1 X193.217 Y81.499 E.02318
G1 X192.498 Y81.676 E.04166
G1 X192.01 Y81.77 E.02795
G1 X191.271 Y81.873 E.04194
G1 X190.783 Y81.915 E.02758
G1 X189.988 Y81.941 E.04473
G1 X50.025 Y81.941 E7.87099
G1 X49.473 Y81.959 E.03106
G1 X48.656 Y82.055 E.04625
G1 X47.843 Y82.237 E.04688
G1 X47.052 Y82.502 E.04691
G1 X46.292 Y82.847 E.04691
G1 X45.573 Y83.268 E.04691
G1 X44.9 Y83.762 E.04691
G1 X44.282 Y84.324 E.04698
G1 X43.896 Y84.74 E.03191
G1 X43.392 Y85.39 E.04623
G1 X42.951 Y86.098 E.0469
G1 X42.585 Y86.848 E.04695
G1 X42.36 Y87.442 E.03573
G1 X42.136 Y88.247 E.04697
G1 X42.004 Y89.012 E.04369
G1 X41.945 Y89.844 E.04691
G1 X41.97 Y90.656 E.04566
G1 X42.046 Y91.286 E.03569
G1 X42.222 Y92.101 E.04691
G1 X42.473 Y92.873 E.04565
G1 X42.785 Y93.585 E.04371
G1 X43.09 Y94.142 E.03571
G1 X43.508 Y94.771 E.04247
G1 X44.036 Y95.417 E.04695
G1 X44.432 Y95.825 E.03195
G1 X44.899 Y96.237 E.03504
G1 X45.572 Y96.731 E.04693
G1 X46.222 Y97.117 E.04249
G1 X46.793 Y97.392 E.03566
G1 X47.5 Y97.66 E.04252
G1 X48.111 Y97.833 E.0357
G1 X48.873 Y97.978 E.04364
G1 X49.684 Y98.051 E.04576
G1 X189.993 Y98.059 E7.89048
G1 X190.454 Y98.068 E.02595
M73 P6 R46
G1 X191.2 Y98.12 E.04201
G1 X191.686 Y98.179 E.02758
G1 X192.408 Y98.305 E.0412
G1 X193.294 Y98.523 E.0513
G1 X194.085 Y98.78 E.0468
G1 X194.858 Y99.092 E.04684
G1 X195.876 Y99.606 E.06414
G1 X196.645 Y100.079 E.0508
G1 X197.327 Y100.571 E.04728
G1 X198.186 Y101.307 E.06357
G1 X198.768 Y101.895 E.04655
G1 X199.312 Y102.525 E.0468
G1 X199.853 Y103.255 E.05113
G1 X200.297 Y103.954 E.04657
G1 X200.828 Y104.965 E.0642
G1 X201.151 Y105.73 E.04668
G1 X201.444 Y106.592 E.05124
G1 X201.654 Y107.397 E.04676
G1 X201.849 Y108.52 E.0641
G1 X201.923 Y109.343 E.04649
G1 X201.938 Y110.254 E.05124
G1 X201.892 Y111.084 E.04675
G1 X201.734 Y112.215 E.06419
G1 X201.553 Y113.02 E.04638
G1 X201.289 Y113.892 E.05124
G1 X200.993 Y114.663 E.04645
G1 X200.498 Y115.691 E.06415
G1 X200.035 Y116.472 E.05109
G1 X199.557 Y117.158 E.04698
G1 X198.838 Y118.03 E.06359
G1 X198.25 Y118.632 E.04733
G1 X197.635 Y119.18 E.04631
G1 X196.906 Y119.741 E.05172
G1 X195.955 Y120.35 E.06352
G1 X195.213 Y120.743 E.04723
G1 X194.769 Y120.947 E.02744
G1 X194.005 Y121.249 E.04623
G1 X193.298 Y121.476 E.04176
G1 X192.817 Y121.603 E.02796
G1 X192.094 Y121.755 E.04158
G1 X191.603 Y121.832 E.02795
G1 X190.864 Y121.909 E.04176
G1 X190.031 Y121.941 E.04685
G1 X50.025 Y121.941 E7.87343
G1 X49.473 Y121.959 E.03106
G1 X48.657 Y122.055 E.04624
G1 X47.843 Y122.237 E.0469
G1 X47.052 Y122.501 E.04689
G1 X46.53 Y122.728 E.03198
G1 X45.807 Y123.12 E.04624
G1 X45.119 Y123.59 E.0469
G1 X44.481 Y124.13 E.04695
G1 X44.036 Y124.583 E.03572
G1 X43.507 Y125.229 E.04697
G1 X43.078 Y125.877 E.04368
G1 X42.699 Y126.594 E.04564
G1 X42.386 Y127.366 E.04687
G1 X42.154 Y128.168 E.04691
G1 X42.007 Y128.988 E.04687
G1 X41.952 Y129.623 E.03582
G1 X41.953 Y130.4 E.04372
G1 X42.038 Y131.23 E.04692
G1 X42.202 Y132.025 E.04562
G1 X42.453 Y132.821 E.04695
G1 X42.67 Y133.345 E.03189
G1 X43.049 Y134.074 E.04624
G1 X43.508 Y134.771 E.04691
G1 X44.036 Y135.417 E.04696
G1 X44.432 Y135.824 E.0319
G1 X45.055 Y136.361 E.04625
G1 X45.738 Y136.838 E.04685
G1 X46.291 Y137.153 E.03579
G1 X46.977 Y137.469 E.04249
G1 X47.766 Y137.741 E.04693
G1 X48.316 Y137.88 E.03191
G1 X49.127 Y138.01 E.04621
G1 X49.695 Y138.052 E.03203
