; HEADER_BLOCK_START
; generated by OrcaSlicer 1.7.0 on 2023-11-13 at 12:41:18
; total layer number: 75
; HEADER_BLOCK_END

; THUMBNAIL_BLOCK_START
; THUMBNAIL_BLOCK_END

; external perimeters extrusion width = 0.70mm
; perimeters extrusion width = 0.45mm
; infill extrusion width = 0.45mm
; solid infill extrusion width = 0.40mm
; top infill extrusion width = 0.40mm
; first layer extrusion width = 0.50mm

; EXECUTABLE_BLOCK_START
EXCLUDE_OBJECT_DEFINE NAME=SpeedTestStructure.step_id_0_copy_0 CENTER=110,110 POLYGON=[[20.0007,80],[20.0036,79.6687],[20.0066,79.5167],[20.0123,79.3248],[20.023,79.0582],[20.0241,79.0337],[20.0333,78.8587],[20.0474,78.6347],[20.0533,78.5513],[20.0621,78.4358],[20.08,78.2227],[20.0941,78.0697],[20.1124,77.8911],[20.1227,77.7953],[20.1351,77.6861],[20.1466,77.5893],[20.152,77.5448],[20.1593,77.4863],[20.1732,77.3793],[20.1804,77.3251],[20.1929,77.2342],[20.1944,77.2238],[20.2036,77.1586],[20.2085,77.1251],[20.2106,77.1102],[20.2124,77.0978],[20.2143,77.0852],[20.2172,77.0654],[20.2177,77.0621],[20.2179,77.061],[20.235,76.9539],[20.2606,76.7934],[20.2721,76.7214],[20.2862,76.6329],[20.3733,76.1575],[20.3818,76.1169],[20.4719,75.6843],[20.5819,75.2137],[20.7032,74.7458],[20.8358,74.2811],[20.9796,73.8197],[20.9929,73.7804],[21.1345,73.3618],[21.3004,72.9079],[21.4773,72.4581],[21.4933,72.4199],[21.6649,72.0127],[21.8633,71.572],[21.8812,71.5346],[22.0722,71.1362],[22.091,71.0993],[22.2916,70.7055],[22.3113,70.6691],[22.5214,70.2803],[22.7614,69.8608],[22.7828,69.8253],[23.0114,69.4472],[23.2713,69.0397],[23.2945,69.0054],[23.5411,68.6387],[23.8204,68.2443],[23.8452,68.2111],[24.1092,67.8568],[24.4073,67.4763],[24.7144,67.1032],[24.7415,67.0718],[25.0305,66.7375],[25.3554,66.3797],[25.3839,66.3497],[25.6888,66.0298],[26.0305,65.688],[26.0605,65.6594],[26.3804,65.3546],[26.4111,65.3268],[26.7383,65.0298],[26.7696,65.0027],[27.1039,64.7137],[27.1359,64.6874],[27.477,64.4065],[27.5097,64.381],[27.8575,64.1084],[27.8907,64.0837],[28.245,63.8197],[28.2788,63.7957],[28.6395,63.5403],[28.6738,63.5172],[29.0405,63.2706],[29.0754,63.2483],[29.4479,63.0106],[29.8615,62.7606],[30.2811,62.5206],[30.3175,62.5009],[30.7063,62.2909],[31.1369,62.0715],[31.1743,62.0536],[31.5727,61.8625],[31.6105,61.8455],[32.0135,61.6642],[32.0516,61.6481],[32.4588,61.4765],[32.4974,61.4613],[32.9086,61.2997],[32.9476,61.2855],[33.3626,61.1338],[33.8204,60.9789],[34.2818,60.8351],[34.7466,60.7025],[35.2144,60.5812],[35.2548,60.5717],[35.6851,60.4712],[36.1582,60.3726],[36.199,60.3651],[36.6336,60.2855],[36.6745,60.279],[37.111,60.2099],[37.59,60.1458],[37.6312,60.1413],[38.0705,60.0934],[38.1117,60.0899],[38.552,60.0525],[38.5934,60.05],[39.0345,60.0234],[39.0759,60.0219],[39.5175,60.0058],[40.0007,60],[190.001,60],[190.346,60.006],[190.691,60.0238],[191.035,60.0536],[191.377,60.0952],[191.407,60.0998],[191.718,60.1486],[192.057,60.2138],[192.394,60.2906],[192.423,60.2982],[192.728,60.379],[193.058,60.4788],[193.086,60.4884],[193.385,60.59],[193.708,60.7124],[193.735,60.7239],[194.026,60.8459],[194.053,60.8583],[194.34,60.9903],[194.648,61.1454],[194.951,61.3111],[195.248,61.4872],[195.273,61.5031],[195.538,61.6733],[195.563,61.6901],[195.823,61.8694],[195.846,61.8871],[196.1,62.0752],[196.37,62.2905],[196.632,62.5149],[196.654,62.5349],[196.886,62.7482],[197.133,62.9902],[197.153,63.0117],[197.37,63.2406],[197.39,63.2627],[197.599,63.499],[197.819,63.7651],[197.837,63.7886],[198.03,64.0387],[198.047,64.0627],[198.231,64.3194],[198.247,64.344],[198.422,64.6068],[198.437,64.632],[198.603,64.9007],[198.618,64.9264],[198.774,65.2006],[198.788,65.2268],[198.934,65.5063],[199.084,65.8173],[199.223,66.1333],[199.351,66.4539],[199.468,66.7788],[199.477,66.807],[199.573,67.1075],[199.581,67.1359],[199.667,67.4396],[199.75,67.7748],[199.756,67.8037],[199.821,68.1126],[199.88,68.4527],[199.928,68.7946],[199.964,69.138],[199.987,69.4824],[199.988,69.512],[199.999,69.8274],[199.999,150.173],[199.998,150.202],[199.987,150.518],[199.985,150.547],[199.964,150.862],[199.96,150.891],[199.928,151.205],[199.924,151.235],[199.88,151.547],[199.821,151.887],[199.815,151.916],[199.75,152.225],[199.743,152.254],[199.667,152.56],[199.573,152.893],[199.468,153.221],[199.458,153.249],[199.351,153.546],[199.223,153.867],[199.211,153.894],[199.084,154.183],[198.934,154.494],[198.774,154.799],[198.603,155.099],[198.587,155.125],[198.422,155.393],[198.247,155.656],[198.231,155.681],[198.047,155.937],[198.03,155.961],[197.837,156.211],[197.819,156.235],[197.8,156.258],[197.599,156.501],[197.39,156.737],[197.37,156.759],[197.35,156.781],[197.133,157.01],[196.886,157.252],[196.654,157.465],[196.632,157.485],[196.37,157.71],[196.1,157.925],[195.846,158.113],[195.823,158.131],[195.563,158.31],[195.538,158.327],[195.248,158.513],[194.951,158.689],[194.648,158.855],[194.366,158.996],[194.34,159.01],[194.053,159.142],[194.026,159.154],[193.735,159.276],[193.708,159.288],[193.385,159.41],[193.058,159.521],[192.728,159.621],[192.394,159.709],[192.086,159.78],[192.057,159.786],[191.718,159.851],[191.407,159.9],[191.377,159.905],[191.035,159.946],[190.691,159.976],[190.346,159.994],[190.001,160],[40.0007,160],[39.9636,160],[39.5175,159.994],[39.4761,159.993],[39.0345,159.977],[38.552,159.947],[38.5108,159.944],[38.0705,159.907],[37.59,159.854],[37.549,159.849],[37.111,159.79],[36.6336,159.715],[36.5929,159.707],[36.1582,159.627],[36.1177,159.619],[35.6851,159.529],[35.6447,159.519],[35.2144,159.419],[34.7466,159.298],[34.7068,159.286],[34.2818,159.165],[33.8204,159.021],[33.3626,158.866],[32.9086,158.7],[32.4588,158.523],[32.4207,158.507],[32.0135,158.336],[31.9757,158.319],[31.5727,158.137],[31.5354,158.12],[31.1369,157.929],[31.1,157.91],[30.7063,157.709],[30.6698,157.689],[30.2811,157.479],[30.2451,157.459],[29.8615,157.239],[29.8261,157.218],[29.4479,156.989],[29.413,156.967],[29.0405,156.729],[29.0061,156.706],[28.6395,156.46],[28.6056,156.436],[28.245,156.18],[27.8575,155.892],[27.8249,155.866],[27.477,155.593],[27.445,155.567],[27.1039,155.286],[27.0726,155.259],[26.7383,154.97],[26.7076,154.942],[26.3804,154.645],[26.0305,154.312],[25.6888,153.97],[25.3554,153.62],[25.3275,153.59],[25.0305,153.262],[24.7144,152.897],[24.6881,152.865],[24.4073,152.524],[24.3817,152.491],[24.1092,152.143],[23.8204,151.756],[23.5411,151.361],[23.2713,150.96],[23.2491,150.925],[23.0114,150.553],[22.99,150.517],[22.7614,150.139],[22.7408,150.103],[22.5214,149.72],[22.2916,149.294],[22.0722,148.864],[21.8633,148.428],[21.8463,148.39],[21.6649,147.987],[21.4772,147.542],[21.4621,147.503],[21.3004,147.092],[21.1345,146.638],[20.9796,146.18],[20.8358,145.719],[20.8245,145.679],[20.7032,145.254],[20.5819,144.786],[20.4719,144.316],[20.3733,143.843],[20.3659,143.802],[20.2862,143.367],[20.274,143.29],[20.2606,143.207],[20.235,143.046],[20.2231,142.972],[20.2179,142.939],[20.2179,142.939],[20.2177,142.938],[20.217,142.933],[20.2165,142.93],[20.2153,142.922],[20.2137,142.911],[20.2106,142.89],[20.2092,142.88],[20.2083,142.874],[20.2021,142.831],[20.1998,142.815],[20.1901,142.745],[20.1858,142.715],[20.1741,142.627],[20.1652,142.559],[20.1593,142.514],[20.1466,142.411],[20.1437,142.387],[20.1348,142.311],[20.1135,142.119],[20.1044,142.033],[20.0941,141.93],[20.0812,141.79],[20.074,141.709],[20.0533,141.449],[20.0485,141.381],[20.0441,141.315],[20.0241,140.966],[20.0207,140.892],[20.0066,140.483],[20.0051,140.413],[20.0018,140.204],[20.0007,140],[20.0007,80]]
M73 P0 R49
;TYPE:Custom
_PRINT_START_PHASE_INIT EXTRUDER=225 BED=60 MESH_MIN=14.7658,54.765 MESH_MAX=205.234,165.235 LAYERS=75 NOZZLE_SIZE=0.4

; Load bed
BED_MESH_PROFILE LOAD="default"
SET_SURFACE_OFFSET OFFSET=0.147

; Insert custom gcode here.
_PRINT_START_PHASE_PREHEAT

; Insert custom gcode here.
_PRINT_START_PHASE_PROBING

; Insert custom gcode here.
_PRINT_START_PHASE_EXTRUDER

; Insert custom gcode here.
_PRINT_START_PHASE_PURGE
G90
G21
M83 ; use relative distances for extrusion
; filament start gcode
M106 S0
;LAYER_CHANGE
;Z:0.32
;HEIGHT:0.32
;BEFORE_LAYER_CHANGE
;0.32
BEFORE_LAYER_CHANGE HEIGHT=0.32 LAYER=0
G1 Z.32 F9000
;AFTER_LAYER_CHANGE
;0.32
AFTER_LAYER_CHANGE

;_SET_FAN_SPEED_CHANGING_LAYER
SET_VELOCITY_LIMIT ACCEL=500 ACCEL_TO_DECEL=250
G1 E-5 F3600
G1 X27.931 Y58.094 F9000
G1 E5 F2400
;TYPE:Skirt
;WIDTH:0.5
G1 F900
G1 X30.541 Y56.839 E.1662
G1 X33.401 Y55.868 E.17333
G1 X36.359 Y55.248 E.17338
G1 X39.486 Y54.987 E.18009
G1 X190.049 Y54.981 E8.63989
G1 X191.423 Y55.05 E.07897
G1 X192.707 Y55.228 E.07437
G1 X194.094 Y55.55 E.08169
G1 X195.602 Y56.066 E.09148
G1 X196.632 Y56.525 E.06474
G1 X197.962 Y57.265 E.08731
G1 X199.191 Y58.123 E.08601
G1 X200.35 Y59.117 E.08761
G1 X201.093 Y59.876 E.06096
G1 X202.287 Y61.363 E.10943
G1 X203.434 Y63.287 E.12852
G1 X204.176 Y65.041 E.1093
G1 X204.522 Y66.166 E.06751
G1 X204.756 Y67.204 E.0611
G1 X204.991 Y69.094 E.10931
G1 X204.973 Y151.166 E4.70962
G1 X204.672 Y153.208 E.11842
G1 X204.339 Y154.467 E.07473
G1 X203.839 Y155.835 E.0836
G1 X202.899 Y157.692 E.11941
G1 X201.761 Y159.34 E.11491
G1 X200.69 Y160.549 E.09271
G1 X199.191 Y161.877 E.1149
G1 X197.461 Y163.033 E.1194
G1 X195.687 Y163.9 E.1133
G1 X193.964 Y164.485 E.10445
G1 X192.038 Y164.879 E.11281
G1 X190.046 Y165.019 E.1146
G1 X38.702 Y164.985 E8.6847
M73 P1 R49
G1 X36.983 Y164.836 E.099
G1 X35.314 Y164.575 E.09694
G1 X32.383 Y163.83 E.17354
G1 X29.459 Y162.69 E.18011
G1 X26.823 Y161.267 E.17189
G1 X24.264 Y159.45 E.1801
G1 X22.961 Y158.319 E.09901
G1 X21.762 Y157.124 E.09712
G1 X19.777 Y154.728 E.17861
G1 X18.149 Y152.183 E.17337
G1 X16.841 Y149.463 E.17317
G1 X15.893 Y146.688 E.16829
G1 X15.328 Y144.146 E.14938
G1 X15.007 Y141.116 E.17485
G1 X14.981 Y80 E3.50711
G1 X15.105 Y77.523 E.14231
G1 X15.566 Y74.628 E.16821
G1 X16.391 Y71.722 E.17336
G1 X17.561 Y68.937 E.17336
G1 X19.058 Y66.313 E.17337
G1 X20.861 Y63.888 E.17338
G1 X22.943 Y61.699 E.17336
G1 X25.273 Y59.776 E.17337
G1 X27.818 Y58.148 E.17337
G1 X27.895 Y58.111 E.00489
; printing object SpeedTestStructure.step id:0 copy 0
G1 E-3.5 F3600
;WIPE_START
G1 F900
G1 X28.796 Y57.678 E-1.5
;WIPE_END
EXCLUDE_OBJECT_START NAME=SpeedTestStructure.step_id_0_copy_0
G1 X29.155 Y60.433 F9000
G1 E5 F2400
;TYPE:Brim
G1 F900
G1 X30.546 Y59.724 E.08962
G1 X31.592 Y59.268 E.0655
G1 X33.056 Y58.733 E.08943
G1 X34.152 Y58.406 E.06565
G1 X35.673 Y58.051 E.08961
G1 X36.798 Y57.858 E.06548
G1 X38.347 Y57.689 E.08944
G1 X39.491 Y57.634 E.06573
G1 X190.47 Y57.637 E8.66378
G1 X191.233 Y57.69 E.04388
G1 X192.17 Y57.82 E.05426
G1 X192.92 Y57.977 E.04401
G1 X193.332 Y58.085 E.02441
G1 X193.824 Y58.234 E.0295
G1 X194.543 Y58.492 E.04387
G1 X195.409 Y58.873 E.05426
G1 X196.086 Y59.228 E.04387
G1 X196.53 Y59.491 E.02963
G1 X196.887 Y59.722 E.0244
G1 X197.511 Y60.168 E.04402
G1 X198.239 Y60.77 E.05421
G1 X198.55 Y61.057 E.0243
G1 X199.087 Y61.603 E.04389
G1 X199.701 Y62.321 E.05426
G1 X200.158 Y62.937 E.04401
G1 X200.395 Y63.29 E.02441
G1 X200.665 Y63.728 E.0295
G1 X201.033 Y64.401 E.04399
G1 X201.428 Y65.257 E.05414
G1 X201.699 Y65.974 E.04399
G1 X201.857 Y66.464 E.0295
G1 X201.971 Y66.873 E.02441
G1 X202.142 Y67.621 E.04401
G1 X202.288 Y68.553 E.05414
G1 X202.354 Y69.317 E.04399
G1 X202.372 Y69.831 E.0295
G1 X202.37 Y70.256 E.0244
G1 X202.33 Y71.022 E.04401
G1 X202.217 Y71.958 E.05413
G1 X202.072 Y72.711 E.04399
G1 X201.972 Y73.123 E.02432
G1 X201.699 Y74.027 E.05422
G1 X201.427 Y74.744 E.04399
G1 X201.221 Y75.213 E.02936
G1 X201.034 Y75.598 E.02456
G1 X200.666 Y76.27 E.04401
G1 X200.157 Y77.065 E.05414
G1 X199.701 Y77.679 E.04386
G1 X199.373 Y78.077 E.02963
G1 X199.09 Y78.394 E.0244
G1 X198.552 Y78.941 E.044
G1 X197.846 Y79.566 E.05413
G1 X197.24 Y80.033 E.04387
G1 X196.817 Y80.325 E.02954
G1 X196.162 Y80.729 E.04412
G1 X195.791 Y80.933 E.0243
G1 X194.94 Y81.343 E.05421
G1 X194.228 Y81.627 E.04399
G1 X193.741 Y81.793 E.0295
G1 X193.334 Y81.915 E.0244
G1 X192.588 Y82.098 E.04409
G1 X192.084 Y82.195 E.02945
G1 X191.323 Y82.301 E.04407
G1 X190.812 Y82.345 E.02945
G1 X189.997 Y82.372 E.04678
G1 X50.023 Y82.372 E8.03227
M73 P2 R48
G1 X49.482 Y82.39 E.03105
G1 X48.702 Y82.484 E.04512
G1 X47.932 Y82.659 E.04529
G1 X47.184 Y82.912 E.04531
G1 X46.466 Y83.241 E.04531
G1 X45.786 Y83.643 E.04531
G1 X45.152 Y84.113 E.0453
G1 X44.569 Y84.646 E.04531
G1 X44.21 Y85.036 E.03044
G1 X43.73 Y85.658 E.04509
G1 X43.315 Y86.33 E.04531
G1 X42.971 Y87.041 E.04531
G1 X42.777 Y87.554 E.03149
G1 X42.562 Y88.314 E.04531
G1 X42.431 Y89.07 E.04403
G1 X42.375 Y89.857 E.04531
G1 X42.401 Y90.646 E.04531
G1 X42.509 Y91.429 E.04531
G1 X42.631 Y91.964 E.03151
G1 X42.866 Y92.694 E.04403
G1 X43.182 Y93.417 E.04529
G1 X43.571 Y94.102 E.0452
G1 X43.872 Y94.541 E.03053
G1 X44.371 Y95.146 E.045
G1 X44.744 Y95.526 E.03053
G1 X45.152 Y95.887 E.03128
G1 X45.786 Y96.357 E.04531
G1 X46.446 Y96.748 E.04403
G1 X46.941 Y96.986 E.0315
G1 X47.659 Y97.259 E.04405
G1 X48.186 Y97.408 E.03147
G1 X48.94 Y97.553 E.04405
G1 X49.726 Y97.622 E.04529
G1 X189.999 Y97.628 E8.04938
G1 X190.47 Y97.637 E.02708
G1 X191.237 Y97.69 E.04411
G1 X191.746 Y97.752 E.02942
G1 X192.502 Y97.884 E.04401
G1 X193.332 Y98.085 E.04901
G1 X194.231 Y98.374 E.0542
G1 X194.626 Y98.525 E.02429
G1 X195.328 Y98.834 E.04401
G1 X196.086 Y99.228 E.04904
G1 X196.887 Y99.722 E.05394
G1 X197.581 Y100.222 E.04914
G1 X198.239 Y100.77 E.04912
G1 X198.55 Y101.057 E.02432
G1 X199.087 Y101.603 E.04391
G1 X199.646 Y102.252 E.04913
G1 X200.209 Y103.01 E.0542
G1 X200.442 Y103.363 E.02429
G1 X200.832 Y104.022 E.04392
G1 X201.22 Y104.785 E.04916
G1 X201.553 Y105.572 E.04899
G1 X201.856 Y106.464 E.05408
G1 X202.073 Y107.292 E.0491
G1 X202.158 Y107.707 E.02432
G1 X202.277 Y108.464 E.04401
G1 X202.358 Y109.404 E.05411
G1 X202.37 Y110.257 E.04899
G1 X202.323 Y111.111 E.04903
G1 X202.23 Y111.872 E.04401
G1 X202.159 Y112.29 E.02434
G1 X201.971 Y113.125 E.0491
G1 X201.699 Y114.027 E.05409
G1 X201.393 Y114.825 E.04901
G1 X201.072 Y115.522 E.04403
G1 X200.877 Y115.897 E.0243
G1 X200.395 Y116.71 E.05419
G1 X199.908 Y117.411 E.04901
G1 X199.429 Y118.01 E.04402
G1 X199.149 Y118.329 E.02433
G1 X198.552 Y118.941 E.0491
G1 X197.915 Y119.51 E.04899
G1 X197.167 Y120.085 E.05411
G1 X196.529 Y120.509 E.04399
G1 X196.165 Y120.727 E.02434
G1 X195.407 Y121.128 E.0492
G1 X194.942 Y121.342 E.02938
G1 X194.146 Y121.657 E.04911
G1 X193.416 Y121.891 E.04401
G1 X192.92 Y122.023 E.02943
G1 X192.17 Y122.18 E.04401
G1 X191.324 Y122.301 E.049
G1 X190.812 Y122.345 E.02952
G1 X190.042 Y122.372 E.04421
G1 X50.023 Y122.372 E8.03484
G1 X49.482 Y122.39 E.03105
G1 X48.702 Y122.484 E.0451
G1 X47.932 Y122.659 E.04531
G1 X47.184 Y122.912 E.04531
G1 X46.698 Y123.125 E.03043
G1 X46.008 Y123.501 E.04509
G1 X45.358 Y123.949 E.04531
G1 X44.757 Y124.461 E.04531
G1 X44.373 Y124.853 E.03149
G1 X43.87 Y125.462 E.04533
G1 X43.434 Y126.12 E.04529
G1 X43.078 Y126.8 E.04404
G1 X42.784 Y127.533 E.04531
G1 X42.567 Y128.292 E.04531
G1 X42.431 Y129.07 E.04533
G1 X42.375 Y129.857 E.04529
G1 X42.383 Y130.387 E.03043
G1 X42.464 Y131.169 E.04509
G1 X42.625 Y131.942 E.04531
G1 X42.866 Y132.694 E.04533
G1 X43.07 Y133.183 E.03041
G1 X43.315 Y133.67 E.03129
G1 X43.73 Y134.342 E.04531
G1 X44.213 Y134.967 E.04529
G1 X44.741 Y135.523 E.04403
G1 X45.34 Y136.037 E.04531
G1 X45.989 Y136.487 E.04531
G1 X46.681 Y136.867 E.04531
G1 X47.167 Y137.081 E.03044
G1 X47.91 Y137.335 E.04508
G1 X48.425 Y137.463 E.03043
G1 X49.201 Y137.585 E.04509
G1 X49.73 Y137.622 E.03043
G1 X189.999 Y137.628 E8.04917
M73 P3 R48
G1 X190.47 Y137.637 E.02708
G1 X191.237 Y137.69 E.04408
G1 X191.746 Y137.752 E.02945
G1 X192.501 Y137.883 E.04399
G1 X193.417 Y138.109 E.05411
G1 X194.231 Y138.374 E.04909
G1 X194.626 Y138.525 E.02432
G1 X195.328 Y138.834 E.04401
G1 X196.087 Y139.229 E.04906
G1 X196.815 Y139.674 E.04899
G1 X197.581 Y140.223 E.05409
G1 X198.238 Y140.769 E.04898
G1 X198.855 Y141.359 E.04902
G1 X199.431 Y141.992 E.04911
G1 X199.7 Y142.319 E.02432
G1 X200.156 Y142.934 E.04391
G1 X200.621 Y143.653 E.04914
G1 X201.073 Y144.48 E.05409
G1 X201.428 Y145.258 E.0491
G1 X201.584 Y145.653 E.02431
G1 X201.831 Y146.379 E.04401
G1 X202.053 Y147.204 E.04906
G1 X202.217 Y148.042 E.04901
